X:27
T:Drunken Blacksmith, The
M:6/8
L:1/8
B:Thompson's Compleat Collection of 200 Favourite Country Dances, vol. 2 (London, 1765)
Z:Transcribed and edited by Flynn Titford-Mock, 2007
Z:abc's:AK/Fiddler's Companion
K:Bb
F/E/ | DEF GAB | ABc AGF | GAB cde | fdA B2 F/E/ | DFB cAB | cd=e fga | bg=e cfe | (f3 f2) :|
|: f/f/ | fg_a def | Gc=B c2 c/c/ | efg cde | FBA B2 B/_A/ | GFE GcB | AGF GAB | cde fdB | ecA B2 :|

